src/components/00-materials/images-raw/Wind Turbine.svg

<svg width="96" height="96" viewBox="0 0 96 96" fill="none" xmlns="http://www.w3.org/2000/svg">
<path d="M27 83.9997H35.78C37.2271 83.9992 38.6253 83.4756 39.7168 82.5256C40.8084 81.5755 41.5198 80.2629 41.72 78.8297L45.38 52.4897C47.0608 53.1682 48.9392 53.1682 50.62 52.4897L54.28 78.8297C54.4802 80.2629 55.1916 81.5755 56.2832 82.5256C57.3747 83.4756 58.7729 83.9992 60.22 83.9997H69" stroke="#00008F" stroke-width="2" stroke-linecap="round" stroke-linejoin="round"/>
<path d="M48 53C51.866 53 55 49.866 55 46C55 42.134 51.866 39 48 39C44.134 39 41 42.134 41 46C41 49.866 44.134 53 48 53Z" stroke="#00008F" stroke-width="2" stroke-linecap="round" stroke-linejoin="round"/>
<path d="M53 40.9998L50.21 13.9998C50.1577 13.4499 49.9022 12.9393 49.4935 12.5677C49.0849 12.1961 48.5524 11.9902 48 11.9902C47.4477 11.9902 46.9152 12.1961 46.5065 12.5677C46.0979 12.9393 45.8424 13.4499 45.79 13.9998L43 40.9998M51.94 51.7798L79.33 57.3698C79.8782 57.5036 80.4568 57.4227 80.9472 57.1436C81.4376 56.8645 81.8027 56.4085 81.9676 55.8689C82.1326 55.3293 82.0849 54.747 81.8343 54.2414C81.5838 53.7359 81.1493 53.3453 80.62 53.1498L53.77 42.0498M42.3 41.9398L15.55 52.9998C15.0207 53.1953 14.5863 53.5859 14.3357 54.0914C14.0852 54.597 14.0375 55.1793 14.2024 55.7189C14.3674 56.2585 14.7325 56.7145 15.2229 56.9936C15.7133 57.2727 16.2919 57.3536 16.84 57.2198L43.93 51.6898M36 83.9998H60M57.82 68.9998C62.038 67.1773 65.6788 64.2384 68.35 60.4998M27.65 60.4998C30.3165 64.2469 33.963 67.1877 38.19 68.9998M40.27 22.2298C36.9477 23.3122 33.8891 25.0791 31.2917 27.4164C28.6943 29.7537 26.6157 32.6096 25.19 35.7998M73 44.9998C72.8582 41.3375 71.9111 37.7515 70.2259 34.497C68.5407 31.2424 66.1589 28.3992 63.25 26.1698M66.59 42.0598C66.0028 39.3183 64.8184 36.7401 63.121 34.5087C61.4237 32.2772 59.2552 30.4475 56.77 29.1498M39.23 29.1598C35.6749 31.015 32.7951 33.9438 31 37.5298C30.555 38.4156 30.1805 39.3351 29.88 40.2798M23.52 40.9998C23.2398 42.317 23.0659 43.6546 23 44.9998L23.52 40.9998ZM59.25 23.6698C58.1146 23.1018 56.9379 22.6205 55.73 22.2298L59.25 23.6698ZM57 62.7298C58.4914 61.9325 59.8701 60.9404 61.1 59.7798L57 62.7298ZM34 58.8198C34.9295 59.8413 35.9691 60.7569 37.1 61.5498L34 58.8198Z" stroke="#00008F" stroke-width="2" stroke-linecap="round" stroke-linejoin="round"/>
</svg>

<svg width="96" height="96" viewBox="0 0 96 96" fill="none" xmlns="http://www.w3.org/2000/svg"><path d="M27 84h8.78a6 6 0 005.94-5.17l3.66-26.34a7 7 0 005.24 0l3.66 26.34A6 6 0 0060.22 84H69" stroke="#00008F" stroke-width="2" stroke-linecap="round" stroke-linejoin="round"/><path d="M48 53a7 7 0 100-14 7 7 0 000 14z" stroke="#00008F" stroke-width="2" stroke-linecap="round" stroke-linejoin="round"/><path d="M53 41l-2.79-27a2.22 2.22 0 00-4.42 0L43 41m8.94 10.78l27.39 5.59a2.21 2.21 0 001.29-4.22l-26.85-11.1m-11.47-.11L15.55 53a2.21 2.21 0 001.29 4.22l27.09-5.53M36 84h24m-2.18-15a25.25 25.25 0 0010.53-8.5m-40.7 0A25.05 25.05 0 0038.19 69m2.08-46.77A25 25 0 0025.19 35.8M73 45a24.94 24.94 0 00-9.75-18.83m3.34 15.89a19.069 19.069 0 00-9.82-12.91m-17.54.01a19.07 19.07 0 00-9.35 11.12m-6.36.72a25.135 25.135 0 00-.52 4l.52-4zm35.73-17.33a25.206 25.206 0 00-3.52-1.44l3.52 1.44zM57 62.73a19.082 19.082 0 004.1-2.95L57 62.73zm-23-3.91a18.726 18.726 0 003.1 2.73L34 58.82z" stroke="#00008F" stroke-width="2" stroke-linecap="round" stroke-linejoin="round"/></svg>
